X:304
T:You Parents Hear What Jesus Taught
%%stretchlast false
M:3/2
L:1/4
K:Eb clef=C1
"^I¹"[G,E]2 "^iii¹"[B,G]2 "^v"[B,B] "^iii¹"[B,G]2 | "^v"[B,F] "^iii¹"[B,G] "^♯iv°"[E,=A] "^v"[F,B]2 | "^vi+"[A,c]2 "^iii"[G,B]2 "^iii¹"[B,G] "^v"[B,F]2 | "^i"[E,E] "^i¹"[A,E] "^vii¹"[F,D] "^I¹"[G,E]2 | "^v"[B,F]2 "^iii¹"[B,G]2 [B,G] "^v"[B,F]2 | [F,B] [F,B] "^II"[F,=A] "^v"[F,B]2 | "^I"[E,G]2 "^i"[E,A]2 "^I"[E,G] "^vii"[D,F]2 | "^i"[E,E] "^i¹"[A,E] "^vii¹"[F,D] "^I¹"[G,E]2 |]
